!!!COM: Haydn, Franz Joseph
!!!OPR: String Quartet in A Major
!!!ONM: Opus 20, No. 6
!!!OTL: Affettuoso 
!!!OMV: 4
!!!SCT: H III:36
!!!SCA: Thematisch-bibliographisches Werkevererzeichnis (A. van Hoboken)
!!!YOR: Richault Edition, volume 4
!!!EED: Frances Bennion
!!!ENC: Frances Bennion
!!!CDT: 1732/3/31/-1809/5/31/
!!!OCY: Österreich
!!!YEC: Copyright (c) 1994, 2000 Center for Computer Assisted Research in the Humanities
!!!YEM: Rights to all derivative editions reserved.
!!!YEM: Refer to licensing agreement for further details.
!!!YEN: United States of America
**kern	**kern	**kern	**kern
*k[f#c#g#]	*k[f#c#g#]	*k[f#c#g#]	*k[f#c#g#]
*A:	*A:	*A:	*A:
*clefF	*clefF	*clefC3	*clefF4
*M4/4	*M4/4	*M4/4	*M4/4
*tb32	*tb32	*tb32	*tb32
=1	=1	=1	=1
8r	2.r	1r	1r
8ee	.	.	.
8ee	.	.	.
8ee	.	.	.
8cc#	.	.	.
16b	.	.	.
16cc#	.	.	.
8a	[4a	.	.
8cc#	.	.	.
=2	=2	=2	=2
8b	4a]	1r	1r
4bb	.	.	.
.	2g#	.	.
16gg#	.	.	.
16ee	.	.	.
8aa	.	.	.
8a	.	.	.
8r	4f#	.	.
8a	.	.	.
=3	=3	=3	=3
8g#	4f#	1r	1r
4gg#	.	.	.
.	2e	.	.
16ee	.	.	.
16cc#	.	.	.
8ff#	.	.	.
8f#	.	.	.
8r	[4d	.	.
8f#	.	.	.
=4	=4	=4	=4
8e	4d]	1r	1r
4ee	.	.	.
.	4c#	.	.
16cc#	.	.	.
16a	.	.	.
8dd	8B	.	.
16ee	8A	.	.
16ff#	.	.	.
8ee	4G#	.	.
8dd	.	.	.
=5	=5	=5	=5
4cc#	8A	2.r	1r
.	8a	.	.
8.dd#	8a	.	.
.	8a	.	.
32cc#	.	.	.
32dd#	.	.	.
4ee	8g#	.	.
.	16f#	.	.
.	16g#	.	.
4r	8e	[4e	.
.	8g#	.	.
=6	=6	=6	=6
4.r	8f#	4e]	1r
.	4ff#	.	.
.	.	2d#	.
8ff#	16dd#	.	.
.	16b	.	.
8gg#	8ee	.	.
16aa	8e	.	.
16bb	.	.	.
16aa	8r	[4c#	.
16bb	.	.	.
16gg#	8e	.	.
16aa	.	.	.
=7	=7	=7	=7
4ff#	8d#	4c#]	1r
.	4dd#	.	.
8r	.	2B	.
8dd#	16b	.	.
.	16g#	.	.
8ee	8cc#	.	.
16ff#	8c#	.	.
16gg#	.	.	.
16ff#	8r	[4A	.
16gg#	.	.	.
16ee	8c#	.	.
16ff#	.	.	.
=8	=8	=8	=8
4dd#	8B	4A]	1r
.	4b	.	.
2ee	.	4G#	.
.	16g#	.	.
.	16e	.	.
.	8a	4F#	.
.	16b	.	.
.	16cc#	.	.
4dd#	8b	4B	.
.	8a	.	.
=9	=9	=9	=9
8ee	8g#	8E	1r
16g#	16e	8e	.
16a	16f#	.	.
8b	8g#	8e	.
16a	16f#	8e	.
16b	16g#	.	.
4cc#	8a	8c#	.
.	8b	16B	.
.	.	16c#	.
[4aa	8cc#	8A	.
.	8ee	8c#	.
=10	=10	=10	=10
4aa]	4dd	8B	1r
.	.	4b	.
2gg#	8r	.	.
.	8b	16g#	.
.	.	16e	.
.	8cc#	8a	.
.	16dd	8A	.
.	16ee	.	.
[4ff#	16dd	8r	.
.	16ee	.	.
.	16cc#	8A	.
.	16dd	.	.
=11	=11	=11	=11
4ff#]	4b	8G#	1r
.	.	4g#	.
2ee	8r	.	.
.	8g#	16e	.
.	.	16c#	.
.	8a	8f#	.
.	16b	8F#	.
.	16cc#	.	.
[4dd	16b	8r	.
.	16cc#	.	.
.	16a	8F#	.
.	16b	.	.
=12	=12	=12	=12
4dd]	4g#	8E	1r
.	.	4e	.
4cc#	2a	.	.
.	.	16c#	.
.	.	16A	.
2b	.	8d	.
.	.	16e	.
.	.	16f#	.
.	4g#	8e	.
.	.	8d	.
=13	=13	=13	=13
4a	8a	8c#	8r
.	16cc#	16e	8A
.	16b	16d	.
2.r	8cc#	8e	8A
.	8dd#	8f#	8A
.	[2ee	4B	8G#
.	.	.	16F#
.	.	.	16G#
.	.	8g#	8E
.	.	8b	8G#
=14	=14	=14	=14
1r	4ee]	4a	8F#
.	.	.	4f#
.	2dd#	8r	.
.	.	8f#	16d#
.	.	.	16B
.	.	8g#	8e
.	.	16a	8E
.	.	16b	.
.	[4cc#	16a	8r
.	.	16b	.
.	.	16g#	8E
.	.	16a	.
=15	=15	=15	=15
1r	4cc#]	4f#	8D#
.	.	.	4d#
.	2b	8r	.
.	.	8d#	16B
.	.	.	16G#
.	.	8e	8c#
.	.	16f#	8C#
.	.	16g#	.
.	[4a	16f#	8r
.	.	16g#	.
.	.	16e	8C#
.	.	16f#	.
=16	=16	=16	=16
1r	4a]	4d#	8BB
.	.	.	4B
.	4g#	2e	.
.	.	.	16G#
.	.	.	16E
.	2f#	.	8A
.	.	.	16B
.	.	.	16c#
.	.	4d#	8B
.	.	.	8A
=17	=17	=17	=17
8r	8e	8e	4G#
8ee	8g#	8E	.
8ee	8a	8F#	2r
8ee	8b	8G#	.
8cc#	4e	4A	.
16b	.	.	.
16cc#	.	.	.
8a	4r	4r	[4A
8cc#	.	.	.
=18	=18	=18	=18
8b	4r	4.r	4A]
4bb	.	.	.
.	4.ee	.	2G#
16gg#	.	8B	.
16ee	.	.	.
8aa	.	8c#	.
8a	16ff#	16d	.
.	16cc#	16e	.
8r	4dd	16d	[4F#
.	.	16e	.
8a	.	16c#	.
.	.	16d	.
=19	=19	=19	=19
8g#	4r	4B	4F#]
4gg#	.	.	.
.	4.cc#	8r	2E
16ee	.	8G#	.
16cc#	.	.	.
8ff#	.	8A	.
8f#	16dd	16B	.
.	16a	16c#	.
8r	4b	16B	[4D
.	.	16c#	.
8f#	.	16A	.
.	.	16B	.
=20	=20	=20	=20
8e	4r	4G#	4D]
4ee	.	.	.
.	4e	2A	4C#
16cc#	.	.	.
16a	.	.	.
8dd	8f#	.	2BB
16ee	8d	.	.
16ff#	.	.	.
8ee	8B	4G#	.
8dd	16c#	.	.
.	16d	.	.
=21	=21	=21	=21
8cc#	4e	4A	4AA
8ee	.	.	.
2aa	2r	8r	8r
.	.	8a	8c#
.	.	2b	8d
.	.	.	16e
.	.	.	16f#
[4gg#	8r	.	16e
.	.	.	16f#
.	[8ee	.	16d
.	.	.	16e
=22	=22	=22	=22
8gg#]	8ee]	4.a	4c#
16aa	8c#	.	.
16ee	.	.	.
2ff#	8d	.	8r
.	4dd	16b	8d
.	.	16f#	.
.	.	2g#	8B
.	16b	.	16c#
.	16g#	.	16d
[4ee	[4cc#	.	16c#
.	.	.	16d
.	.	.	16B
.	.	.	16c#
=23	=23	=23	=23
8ee]	8cc#]	4.f#	4A#
16ff#	8A#	.	.
16cc#	.	.	.
2dd	8B	.	8r
.	4b	16d	8B
.	.	16f#	.
.	.	2e	8G#
.	16g#	.	16A
.	16e	.	16B
[4cc#	[4a	.	8A
.	.	.	8G#
=24	=24	=24	=24
4cc#]	8a]	2d	8F#
.	16f#	.	16G#
.	16d	.	16A
2b	4.g#	.	16G#
.	.	.	16A
.	.	.	16F#
.	.	.	16G#
.	.	[2c#	8E#
.	16e#	.	16F#
.	16c#	.	16G#
8a	8f#	.	8F#
8g#	8g#	.	8E
=25	=25	=25	=25
4f#	8a	8c#]	2D
.	8ff#	8a	.
4b#	8ff#	8g#	.
.	8ff#	8f#	.
4cc#	8ee#	8g#	4C#
.	16dd#	8cc#	.
.	16ee#	.	.
4r	8cc#	8cc#	4r
.	8ee#	8cc#	.
=26	=26	=26	=26
1r	4.ff#	8a#	1r
.	.	16g#	.
.	.	16a#	.
.	.	8f#	.
.	8ee	8a#	.
.	8dd#	4.b	.
.	16cc#	.	.
.	16dd#	.	.
.	8b	.	.
.	8dd#	8a	.
=27	=27	=27	=27
1r	4.ee	8g#	2r
.	.	16f#	.
.	.	16g#	.
.	.	8e	.
.	8dd	8g#	.
.	8cc#	4a	8r
.	16b	.	8A
.	16cc#	.	.
.	8a	8c#	8A
.	16b	16d	8A
.	16cc#	16e	.
=28	=28	=28	=28
4.r	4dd	8f#	8F#
.	.	8a	16E
.	.	.	16F#
.	4.r	2dd	8D
8a	.	.	8F#
8g	.	.	8E
4gg	8b	.	4e
.	8cc#	[4cc#	.
16ee	8ee	.	16c#
16cc#	.	.	16A
=29	=29	=29	=29
8ff#	8r	4cc#]	8D
8f#	8a	.	8d
8r	8b	2b	8r
8f#	8dd	.	8D
8e	8r	.	8C#
4ee	8g#	.	4c#
.	8a	[4a	.
16cc#	8cc#	.	16A
16a	.	.	16F#
=30	=30	=30	=30
8dd	8r	4a]	8B
8d	8dd	.	8BB
8r	8dd	4g#	8r
8b	8dd	.	8EE
8a	8cc#	4a	4AA
8aa	16b	.	.
.	16cc#	.	.
8aa	8a	4r	4r
8aa	8cc#	.	.
=31	=31	=31	=31
8ff#	4dd	4.r	1r
16ee	.	.	.
16ff#	.	.	.
8dd	2dd	.	.
8ff#	.	8f#	.
8ee	.	8g	.
4eee	.	8G	.
.	[4cc#	8A	.
16ccc#	.	8a	.
16aa	.	.	.
=32	=32	=32	=32
8ddd	4cc#]	8f#	1r
8dd	.	16g	.
.	.	16a	.
8r	2b	16g	.
.	.	16a	.
8dd	.	16f#	.
.	.	16g	.
8cc#	.	8e	.
4ccc#	.	8E	.
.	[4a	8F#	.
16aa	.	8f#	.
16ff#	.	.	.
=33	=33	=33	=33
8bb	4a]	8d	1r
8b	.	16e	.
.	.	16f#	.
8r	2g	16e	.
.	.	16f#	.
8b	.	16d	.
.	.	16e	.
8a	.	8c#	.
4aa	.	8C#	.
.	4f#	8D	.
16ff#	.	8d	.
16dd	.	.	.
=34	=34	=34	=34
8gg	2e	4d	1r
16aa	.	.	.
16bb	.	.	.
16aa	.	2c#	.
16bb	.	.	.
16gg	.	.	.
16aa	.	.	.
8ff#	2d	.	.
16gg	.	.	.
16aa	.	.	.
16gg	.	[4B	.
16aa	.	.	.
16ff#	.	.	.
16gg	.	.	.
=35	=35	=35	=35
8ee	2c#	4B]	2r
16ff#	.	.	.
16gg	.	.	.
16ff#	.	4A#	.
16gg	.	.	.
16ee	.	.	.
16ff#	.	.	.
4dd	8d	8B	8r
.	8dd	16B	8B
.	.	16c#	.
4r	8dd	16d	8B
.	.	16c#	.
.	8dd	16d	8B
.	.	16e	.
=36	=36	=36	=36
8r	8cc#	8f#	8A#
8ff#	16b	4cc#	16G#
.	16cc#	.	16A#
8ff#	8a#	.	8F#
8ee	8cc#	16a#	8A#
.	.	16f#	.
8dd	4.f#	4b	4.B
16cc#	.	.	.
16dd	.	.	.
8b	.	8r	.
8dd#	8b	8f#	8A
=37	=37	=37	=37
4.ee	8b	8e	8G#
.	16a#	4b	16F#
.	16b	.	16G#
.	8g#	.	8E
8dd	8b	16g#	8G#
.	.	16e	.
8cc#	4.e	4a	4A
16b	.	.	.
16cc#	.	.	.
8a	.	4r	4r
8cc#	8a#	.	.
=38	=38	=38	=38
4b	8g#	4.r	1r
.	16f#	.	.
.	16g#	.	.
4ee	8e	.	.
.	8g#	16E	.
.	.	16G#	.
8dd	4f#	4B	.
16cc#	.	.	.
16dd	.	.	.
8b	4b	4r	.
8dd	.	.	.
=39	=39	=39	=39
4cc#	8a	4.r	1r
.	16g#	.	.
.	16a	.	.
4ff#	8f#	.	.
.	8a	16F#	.
.	.	16A	.
8ee	4g#	4c#	.
16dd#	.	.	.
16ee	.	.	.
8cc#	4cc#	4r	.
8ee	.	.	.
=40	=40	=40	=40
4.dd#	8b#	8r	1r
.	16a#	8g#	.
.	16b#	.	.
.	8g#	8g#	.
8dd#	8b#	8g#	.
8ee	8cc#	8e	.
8ff#	8dd#	16d#	.
.	.	16e	.
8gg#	8ee	8c#	.
8cc#	8gg#	8e	.
=41	=41	=41	=41
16aa	4cc#	16f#	1r
16bb	.	16g#	.
16ccc#	.	16a	.
16bb	.	16g#	.
16aa	8r	16f#	.
16bb	.	16g#	.
16gg#	8cc#	16e	.
16aa	.	16f#	.
4ff#	16dd#	4.d#	.
.	16ee	.	.
.	16ff#	.	.
.	16ee	.	.
8r	16dd#	.	.
.	16ee	.	.
8ff#	16cc#	8d#	.
.	16dd#	.	.
=42	=42	=42	=42
16gg#	4b	16e	1r
16aa	.	16f#	.
16bb	.	16g#	.
16aa	.	16f#	.
16gg#	8r	16e	.
16aa	.	16f#	.
16ff#	8b	16d#	.
16gg#	.	16e	.
4ee	16cc#	4c#	.
.	16dd#	.	.
.	16ee	.	.
.	16dd#	.	.
8r	16cc#	8r	.
.	16dd#	.	.
8ee	16b	8c#	.
.	16cc#	.	.
=43	=43	=43	=43
16ff#	4a	16d#	2r
16gg#	.	16e	.
16aa	.	16f#	.
16gg#	.	16e	.
16ff#	8r	16d#	.
16gg#	.	16e	.
16ee	8a	16c#	.
16ff#	.	16d#	.
4dd#	16g#	4B#	8r
.	16b#	.	.
.	16dd#	.	8G#
.	16cc#	.	.
8r	16b#	8r	8G#
.	16g#	.	.
8dd#	16a#	8d#	8G#
.	16b#	.	.
=44	=44	=44	=44
4g#	8cc#	8e	8E
.	8dd#	8f#	16D#
.	.	.	16E
4.r	4ee	2g#	8C#
.	.	.	8c#
.	2dd#	.	4c#
8gg#	.	.	.
8gg#	.	[4g#	4B#
8gg#	.	.	.
=45	=45	=45	=45
8ee	4ee	4g#]	2c#
16dd#	.	.	.
16ee	.	.	.
8cc#	2.r	2a	.
8ee	.	.	.
8dd#	.	.	2B
4ddd#	.	.	.
.	.	[4g#	.
16bb	.	.	.
16gg#	.	.	.
=46	=46	=46	=46
8ccc#	2r	4g#]	2A
8cc#	.	.	.
8r	.	2f#	.
8cc#	.	.	.
8b	8r	.	2G#
4bb	8cc#	.	.
.	8cc#	8e#	.
16gg#	8cc#	8B	.
16ee#	.	.	.
=47	=47	=47	=47
4ff#	8a	8A	4F#
.	16g#	8f#	.
.	16a	.	.
2.r	8f#	8f#	4.r
.	8a	8f#	.
.	2g#	8e#	.
.	.	16d#	8c#
.	.	16e#	.
.	.	8c#	8c#
.	.	8e#	8c#
=48	=48	=48	=48
4.r	8a	8f#	8A
.	8b	8g#	16G#
.	.	.	16A
.	8cc#	8a	4F#
8ff#	8cc#	8A	.
4ff#	4.b	8G#	2r
.	.	4g#	.
[4ee	.	.	.
.	8g#	16e	.
.	.	16c#	.
=49	=49	=49	=49
4ee]	8a	8f#	1r
.	16b	8F#	.
.	16cc#	.	.
2dd	16b	8r	.
.	16cc#	.	.
.	16a	8F#	.
.	16b	.	.
.	4g#	8E	.
.	.	4e	.
[4cc#	8r	.	.
.	8e	16c#	.
.	.	16A	.
=50	=50	=50	=50
4cc#]	8f#	8d	1r
.	16g#	8D	.
.	16a	.	.
2b	16g#	8r	.
.	16a	.	.
.	16f#	8D	.
.	16g#	.	.
.	8e	4C#	.
.	8ee	.	.
4a#	8ee	4F#	.
.	8ee	.	.
=51	=51	=51	=51
[2f#	8dd	8r	1r
.	16cc#	8B	.
.	16dd	.	.
.	8b	8B	.
.	8dd	8B	.
8f#]	8cc#	8A#	.
8ff#	16b	16G#	.
.	16cc#	16A#	.
8ff#	8a#	8F#	.
8ff#	8cc#	8A#	.
=52	=52	=52	=52
8dd	2f#	4B	8r
16cc#	.	.	8BB
16dd	.	.	.
8b	.	4.r	8BB
8dd#	.	.	8BB
4ee	8b	.	8GG#
.	16a	8e	16FF#
.	16b	.	16GG#
4r	8g#	8e	8EE
.	8b	8e	8GG#
=53	=53	=53	=53
4.r	8a	4e	8FF#
.	4aa	.	4F#
.	.	8d#	.
8a	16ff#	4dd#	16D#
.	16dd#	.	16BB
8g#	8gg#	.	8E
4gg#	8g#	16b	8EE
.	.	16g#	.
.	8r	[4cc#	8r
16ee	8g#	.	8EE
16cc#	.	.	.
=54	=54	=54	=54
8ff#	8f#	8cc#]	8DD#
8f#	4ff#	8c#	4D#
8r	.	8B	.
8f#	16dd#	4b	16BB
.	16b	.	16GG#
8e	8ee	.	8C#
4ee	8e	16g#	8CC#
.	.	16e	.
.	8r	[4a	8r
16cc#	8e	.	8C#
16a	.	.	.
=55	=55	=55	=55
4.dd#	8d#	8a]	8BB
.	4dd#	16b	4B
.	.	16a	.
.	.	4.g#	.
16ee	16b	.	16G#
16dd#	16g#	.	16E
4.cc#	8cc#	.	8A
.	8c#	16a	8AA
.	.	16g#	.
.	8r	[4f#	8r
16dd#	8c#	.	8AA
16cc#	.	.	.
=56	=56	=56	=56
4b#	4d#	8f#]	2GG#
.	.	16g#	.
.	.	16f#	.
2cc#	8e	16e	.
.	.	16g#	.
.	8c#	16f#	.
.	.	16e	.
.	4g#	4.d#	8GG#
.	.	.	8G#
4b#	4r	.	8G#
.	.	8d#	8G#
=57	=57	=57	=57
4cc#	8r	8e	8E
.	8gg#	16f#	16D#
.	.	16g#	16E
2.r	8gg#	16e	4C#
.	.	16f#	.
.	8gg#	16d#	.
.	.	16e	.
.	8ee	4c#	8r
.	16dd#	.	8c#
.	16ee	.	.
.	4cc#	8r	8c#
.	.	8g#	8c#
=58	=58	=58	=58
8r	2..r	8a	8A
8ccc#	.	16b	16G#
.	.	16cc#	16A
8ccc#	.	16a	4F#
.	.	16b	.
8ccc#	.	16g#	.
.	.	16a	.
8aa	.	8f#	2r
16gg#	.	8f#	.
16aa	.	.	.
4ff#	.	8f#	.
.	8cc#	8f#	.
=59	=59	=59	=59
8r	8dd#	8d#	1r
8ff#	16ee	16c#	.
.	16ff#	16d#	.
8ff#	16dd#	4B	.
.	16ee	.	.
8ff#	16cc#	.	.
.	16dd#	.	.
8dd#	4b	8r	.
16cc#	.	8B	.
16dd#	.	.	.
4b	8r	8B	.
.	8f#	8B	.
=60	=60	=60	=60
8r	8g#	8G#	2r
8bb	16a	16F#	.
.	16b	16G#	.
8bb	16g#	4E	.
.	16a	.	.
8bb	16f#	.	.
.	16g#	.	.
8gg#	4e	4.r	8r
16ff#	.	.	8E
16gg#	.	.	.
4ee	4r	.	8E
.	.	8B	8E
=61	=61	=61	=61
8r	2r	8c#	8C#
8ee	.	16d	16BB
.	.	16e	16C#
8ee	.	16c#	4AA
.	.	16d	.
8ee	.	16B	.
.	.	16c#	.
8cc#	8r	4A	2r
16b	8a	.	.
16cc#	.	.	.
8a	8a	4r	.
8cc#	8a	.	.
=62	=62	=62	=62
8b	8g#	4r	1r
4bb	16f#	.	.
.	16g#	.	.
.	8e	2ee	.
16gg#	8g#	.	.
16ee	.	.	.
8aa	8f#	.	.
8a	4ff#	.	.
8r	.	[4dd	.
8a	16dd	.	.
.	16b	.	.
=63	=63	=63	=63
8g#	8ee	4dd]	1r
4gg#	8e	.	.
.	8r	2cc#	.
16ee	8e	.	.
16cc#	.	.	.
8ff#	8d	.	.
8f#	4dd	.	.
8r	.	[4b	.
8f#	16b	.	.
.	16g#	.	.
=64	=64	=64	=64
8e	8cc#	4b]	1r
4ee	8c#	.	.
.	8r	4.a	.
16cc#	8c#	.	.
16a	.	.	.
8dd	8B	.	.
8d	8g#	8e	.
8d	8g#	8e	.
16c#	8g#	8e	.
16d	.	.	.
=65	=65	=65	=65
4c#	4a	8c#	8r
.	.	16B	8AA
.	.	16c#	.
2.r	2r	8A	8AA
.	.	8c#	8AA
.	.	8B	8GG#
.	.	4b	16FF#
.	.	.	16GG#
.	[4ee	.	8EE
.	.	16g#	8GG#
.	.	16e	.
=66	=66	=66	=66
4.r	4ee]	8a	8FF#
.	.	8A	4F#
.	2dd	8r	.
8f#	.	8A	16D
.	.	.	16BB
8g#	.	8G#	8E
16a	.	4g#	8EE
16b	.	.	.
16a	[4cc#	.	8r
16b	.	.	.
16g#	.	16e	8EE
16a	.	16c#	.
=67	=67	=67	=67
4f#	4cc#]	8f#	8DD
.	.	8F#	4D
8r	2b	8r	.
8d	.	8F#	16BB
.	.	.	16GG#
8e	.	8E	8C#
16f#	.	4e	8CC#
16g#	.	.	.
16f#	[4a	.	8r
16g#	.	.	.
16e	.	16c#	8C#
16f#	.	16A	.
=68	=68	=68	=68
4d	4a]	8d	8BB
.	.	8D	4B
8r	4g#	8r	.
8B	.	8d	16G#
.	.	.	16E
8c#	8a	8c#	8A
8ee	8cc#	8A	8AA
8dd	8b	8r	8D
8cc#	8a	8A	8D#
=69	=69	=69	=69
8b	4g#	[4E	[1E
8ee	.	.	.
8ee	2r	8E]	.
8ee	.	16F#	.
.	.	16G#	.
8cc#	.	8A	.
16b	.	8B	.
16cc#	.	.	.
8a	8r	8c#	.
8cc#	8cc#	8a	.
=70	=70	=70	=70
8b	4dd	4a	1E]
4bb	.	.	.
.	4ee	2g#	.
16gg#	.	.	.
16ee	.	.	.
8aa	8cc#	.	.
8a	16dd	.	.
.	16ee	.	.
8r	16dd	[4f#	.
.	16ee	.	.
8a	16cc#	.	.
.	16dd	.	.
=71	=71	=71	=71
8g#	4b	4f#]	[1E
4gg#	.	.	.
.	4cc#	2e	.
16ee	.	.	.
16cc#	.	.	.
8ff#	8a	.	.
8f#	16b	.	.
.	16cc#	.	.
8r	16b	[4d	.
.	16cc#	.	.
8f#	16a	.	.
.	16b	.	.
=72	=72	=72	=72
8e	4g#	4d]	1E]
4ee	.	.	.
.	4a	4c#	.
16cc#	.	.	.
16a	.	.	.
8f#	4d#	2A	.
4aa	.	.	.
.	4f#	.	.
16ff#	.	.	.
16dd#	.	.	.
=73	=73	=73	=73
8ee	4e	4G#	[1EE
8e	.	.	.
2ee	8r	4g#	.
.	8e	.	.
.	8f#	8a	.
.	4ff#	8A	.
[4dd	.	8B	.
.	16dd	8b	.
.	16b	.	.
=74	=74	=74	=74
4dd]	8ee	8g#	1EE]
.	8e	16a	.
.	.	16b	.
2cc#	8r	16a	.
.	.	16b	.
.	8e	16g#	.
.	.	16a	.
.	8d	8f#	.
.	4dd	8F#	.
[4b	.	8G#	.
.	16b	8g#	.
.	16g#	.	.
=75	=75	=75	=75
4b]	8cc#	8e	2EE
.	8c#	16f#	.
.	.	16g#	.
2a	8r	16f#	.
.	.	16g#	.
.	8c#	16e	.
.	.	16f#	.
.	8B	8d	8EE
.	4b	16e	8E
.	.	16f#	.
4g#	.	[4e	8E
.	16g#	.	8E
.	16e	.	.
=76	=76	=76	=76
8a	8cc#	4e]	8C#
8ee	16dd	.	16BB
.	16ee	.	16C#
8ee	16cc#	4.r	4AA
.	16dd	.	.
8ee	16b	.	.
.	16cc#	.	.
8cc#	4a	.	8r
16b	.	8e	8A
16cc#	.	.	.
4a	8r	8e	8A
.	8c#	8e	8A
=77	=77	=77	=77
8r	4d	8f#	8F#
8aa	.	16g	16E
.	.	16a	16F#
8aa	4.r	16f#	4D
.	.	16g	.
8aa	.	16e	.
.	.	16f#	.
8ff#	.	4d	8r
16ee	8a	.	8d
16ff#	.	.	.
8dd	4b	4r	8B
16cc#	.	.	16A
16dd	.	.	16B
=78	=78	=78	=78
8b	8b	4.r	8G#
16a	8e	.	16F#
16b	.	.	16G#
8g#	4ee	.	8E
8ee	.	8e	8c#
8cc#	8r	4cc#	8A
16b	8ee	.	16G#
16cc#	.	.	16A
8a	8aa	4r	8F#
16ff#	8a	.	16d
16ee	.	.	16c#
=79	=79	=79	=79
16dd	4dd	8r	16B
16ee	.	.	16c#
16cc#	.	8f#	16A
16dd	.	.	16B
16b	8r	4dd	16G#
16cc#	.	.	16A
16a	8B	.	16F#
16b	.	.	16G#
4g#	16g#	8r	16E
.	16a	.	16F#
.	16f#	8B	16D
.	16g#	.	16E
4r	16e	8e	16C#
.	16f#	.	16D
.	16d	16f#	16BB
.	16e	16g#	16C#
=80	=80	=80	=80
8r	4c#	4a	4AA
8ee	.	.	.
8ee	2.r	8r	2.r
8ee	.	8A	.
16ff#	.	8A	.
16ee	.	.	.
16ff#	.	8A	.
16gg#	.	.	.
8aa	.	16c#	.
.	.	16B	.
8ccc#	.	16c#	.
.	.	16d	.
=81	=81	=81	=81
8bb	8r	8e	4.r
4b	4bb	8g#	.
.	.	8r	.
16ee	16gg#	8g#	8E
16gg#	16ee	.	.
8a	8aa	8f#	8F#
8aa	8a	4F#	4f#
8r	4r	.	.
8aa	.	16B	16d
.	.	16d	16B
=82	=82	=82	=82
8gg#	8r	8E	8e
4g#	4gg#	8e	8E
.	.	8r	8r
16cc#	16ee	8e	8C#
16ee	16cc#	.	.
8f#	8ff#	8d	8D
8ff#	8f#	4D	4d
8r	4r	.	.
8ff#	.	16G#	16B
.	.	16B	16G#
=83	=83	=83	=83
8ee	8r	8C#	8c#
4e	8e	8c#	8C#
.	8e	2.r	8r
16a	8e	.	8AA
16cc#	.	.	.
8d	16f#	.	8AA
.	16e	.	.
8dd	16f#	.	8AA
.	16g#	.	.
8cc#	8a	.	16C#
.	.	.	16BB
8a	8cc#	.	16C#
.	.	.	16D
=84	=84	=84	=84
4g#	8b	4r	8E
.	4B	.	8G#
2.r	.	4.ee	8r
.	16e	.	8G#
.	16g#	.	.
.	8A	.	8F#
.	8a	16ff#	4FF#
.	.	16cc#	.
.	8r	[4dd	.
.	8a	.	16BB
.	.	.	16D
=85	=85	=85	=85
1r	8g#	8dd]	8EE
.	4G#	16ee	8E
.	.	16b	.
.	.	4.cc#	8r
.	16c#	.	8E
.	16e	.	.
.	8f#	.	8D
.	8ff#	16dd	4DD
.	.	16a	.
.	8r	4b	.
.	8ff#	.	16GG#
.	.	.	16BB
=86	=86	=86	=86
1r	8ee	8b	8CC#
.	4e	16cc#	8C#
.	.	16g#	.
.	.	8a	8r
.	16a	8e	8C#
.	16cc#	.	.
.	8dd	8g#	8BB
.	8cc#	8a	8AA
.	8b	8f#	8D
.	8a	8f#	8D#
=87	=87	=87	=87
8r	4g#	8B	1E
8ee	.	8G#	.
8ee	4.r	8E	.
8ee	.	16F#	.
.	.	16G#	.
8cc#	.	8A	.
16b	8a	8B	.
16cc#	.	.	.
16a	8a	8c#	.
16cc#	.	.	.
16b	8a	8d	.
16a	.	.	.
=88	=88	=88	=88
8g#	8g#	8e	8EE
8a	16f#	8f#	8E
.	16g#	.	.
8b	8e	8g#	8E
16a	16f#	8e	8E
16b	16g#	.	.
8cc#	8a	8e	8C#
8dd	8b	8e	16BB
.	.	.	16C#
8ee	8cc#	8c#	8AA
8aa	8ee	16B	8C#
.	.	16A	.
=89	=89	=89	=89
4aa	2dd	8d	8BB
.	.	4dd	4B
2gg#	.	.	.
.	.	16b	16G#
.	.	16g#	16E
.	8cc#	8cc#	8A
.	16dd	8c#	8AA
.	16ee	.	.
[4ff#	16dd	8r	8r
.	16ee	.	.
.	16cc#	8a	8AA
.	16dd	.	.
=90	=90	=90	=90
4ff#]	4b	8b	8GG#
.	.	16cc#	4G#
.	.	16dd	.
2ee	8r	16cc#	.
.	.	16dd	.
.	8g#	16b	16E
.	.	16cc#	16C#
.	8a	4a	8F#
.	16b	.	8FF#
.	16cc#	.	.
[4dd	16b	8r	8r
.	16cc#	.	.
.	16a	8f#	8FF#
.	16b	.	.
=91	=91	=91	=91
4dd]	8g#	8b	8EE
.	16a	8g#	16FF#
.	16b	.	16GG#
4cc#	2a	4e	8AA
.	.	.	16BB
.	.	.	16C#
2b	.	8f#	8D
.	.	16e	16C#
.	.	16f#	16D
.	4g#	8e	8E
.	.	8d	8EE
=92	=92	=92	=92
8a	8a	8c#	8AA
8e	8e	8e	8E
8e	8e	8e	8E
8e	8e	8e	8E
8c#	8c#	8c#	8C#
16B	16B	16B	16BB
16c#	16c#	16c#	16C#
8A	8A	8A	8AA
8f#	8f#	8f#	8F#
=93	=93	=93	=93
8d	8d	8d	8D
16c#	16c#	16c#	16C#
16d	16d	16d	16D
8B	8B	8B	8BB
8g#	8g#	8g#	8G#
16a	16a	16a	16A
16b	16b	16b	16B
16cc#	16cc#	16cc#	16c#
16b	16b	16b	16B
16a	16a	16a	16A
16g#	16g#	16g#	16G#
16f#	16f#	16f#	16F#
16e	16e	16e	16E
=94	=94	=94	=94
8d	8d	8d	8D
8b	8b	8b	8B
8e	8e	8e	8E
8g#	8g#	8g#	8G#
4A	4A	4A	4AA
4gg# 4b	4b 4e	4E	4EE
=95	=95	=95	=95
4cc# 4aa	4cc# 4e	4A	4AA
2.r	2.r	2.r	2.r
==	==	==	==
*-	*-	*-	*-
!!!RWG1: This file contains only pitch and duration data.
!!!RWG2: Transposing instruments are not transposed.
!!!RWG3: Spines may have incompatible meters.
!!!RWG4: Durations of rests and tied notes may be interpreted.
!!!RWG: Key is interpreted using the Humdrum key tool.
!!!GTL: 6 Divertimentos ("Sun")
!!!AFT: stage1
!!!END: 1997/04/15
!!format changes:
!!content changes:
!!public access: complete
!!!KEY: 3047419764
!!!EMD: Converted from MuseData to Humdrum Dec 16, 2000, by Andreas Kornstaedt using muse2kern.
